src/apps/scalable/koreader.svg

<svg width="64" height="64" version="1.1" viewBox="0 0 64 64" xmlns="http://www.w3.org/2000/svg" xmlns:xlink="http://www.w3.org/1999/xlink">
 <defs>
  <linearGradient id="linearGradient862-3" x1="7.9373" x2="7.9373" y1="15.081" y2="1.852" gradientTransform="matrix(4.0494 0 0 4.0494 -2.2856 -2.2519)" gradientUnits="userSpaceOnUse">
   <stop stop-color="#f1efeb" offset="0"/>
   <stop stop-color="#fdfcfc" offset="1"/>
  </linearGradient>
  <linearGradient id="linearGradient4724" x1="30.852" x2="30.852" y1="12" y2="51.772" gradientUnits="userSpaceOnUse">
   <stop stop-color="#09cdc2" offset="0"/>
   <stop stop-color="#059b87" offset="1"/>
  </linearGradient>
  <filter id="filter922" x="-.048" y="-.048" width="1.096" height="1.096" color-interpolation-filters="sRGB">
   <feGaussianBlur stdDeviation="1.2"/>
  </filter>
 </defs>
 <rect x="2" y="3" width="60" height="60" rx="30" ry="30" fill="#000000" filter="url(#filter922)" opacity=".15" stroke-width="4.0494"/>
 <rect x="2" y="2" width="60" height="60" rx="30" ry="30" fill="url(#linearGradient862-3)" stroke-width="4.0494"/>
 <image x="9.5" y="8.5" width="45" height="51" image-rendering="optimizeQuality" preserveAspectRatio="none" xlink:href="data:image/png;base64,iVBORw0KGgoAAAANSUhEUgAAAC0AAAAzCAYAAAADxoFxAAAACXBIWXMAAA7DAAAOwwHHb6hkAAAA GXRFWHRTb2Z0d2FyZQB3d3cuaW5rc2NhcGUub3Jnm+48GgAAAZdJREFUaN7tmmFvxCAIhl8c+/9/ eJV9qRulYK9LtesFEnLepcrje2oTkEQErxoREQaZnACh3rMdyCvh5ewk+ACWHMgRaottNwQPngPg yEebWCeiHTh3gIvy0fAWtiqHBecO8IfyMhG6AlhWhwfOzgZrwLy6Bb9qQ4rzvQHbWFU/zx2VGcBn oPYopatakvYfoKZ2T2mtdgmUvhq8qjjVrm1vI3pqF9Wm4Ai86rgTNW6LuRiucE3bk6Oo30aYFqIG sTcisfPWI0f5EQp7ih/GJCIqBhATIV9Vf9cuJweZBdu10ul0l8qHLAUPtIRO6IRO6IRO6IRO6IRO 6IRO6IRO6LeClqB9h4Us5Q8DzAI9VFqwzV7KzWpLj4tFREwS0j70k9SeMAkbcyecl1T3CjUVv2nY 0flpL7ZYcA5mqWsfRS2lGZUAXSiqjvLgoKMFnllzWYxXV+l1XVvoBtdmP7O6tQD4smpHJbnW0Rvo jjpirLRRGwpc1Aa8q2K7URlwbiH8t9q4BXahFThw4y2E9undQnjkfQ964s2abwYO/HMeZvaQAAAA AElFTkSuQmCC "/>
 <rect x="15" y="12" width="34" height="40" rx="5" ry="5" fill="#ffffff" fill-rule="evenodd" stop-color="#000000" stroke-linecap="round" stroke-linejoin="round" stroke-width="2" style="paint-order:stroke fill markers"/>
 <path d="m19.692 12c-2.5569 0-4.6154 2.0585-4.6154 4.6154v30.769c0 2.5569 2.0585 4.6154 4.6154 4.6154h0.40865c-0.26551-1.0043-0.40788-2.0382-0.40865-3.0769-5e-3 -6.7974 5.5103-12.308 12.308-12.308 6.7974 0 12.309 5.5103 12.308 12.308-9e-5 0.67866-0.05861 1.356-0.17128 2.0252 1.0364-0.84499 1.7097-2.1162 1.7097-3.5637v-10.769h-6.1538l-13.846-12.308v12.308l-3.0769-3.0769-3.0769 3.0769zm6.1538 12.308 12.308-12.308h-12.308zm20 12.308v-20c0-1.652-0.86568-3.0851-2.1634-3.9003l-10.914 11.593zm-3.0769-24.615c2.5569 0 4.6154 2.0585 4.6154 4.6154v30.769c0 2.5569-2.0585 4.6154-4.6154 4.6154h1.5385c2.5569 0 4.6154-2.0585 4.6154-4.6154v-30.769c0-2.5569-2.0585-4.6154-4.6154-4.6154zm-10.769 30.769c-3.3986 0-6.1538 2.7552-6.1538 6.1538 0.0024 1.0809 0.28946 2.1422 0.83234 3.0769h10.643c0.54286-0.93474 0.82988-1.996 0.83234-3.0769 0-3.3986-2.7552-6.1538-6.1538-6.1538z" fill="url(#linearGradient4724)" stroke-width="1.5385" style="paint-order:normal"/>
</svg>

<svg xmlns="http://www.w3.org/2000/svg" xmlns:xlink="http://www.w3.org/1999/xlink" width="64" height="64"><defs><linearGradient id="b" x1="7.937" x2="7.937" y1="15.081" y2="1.852" gradientTransform="translate(-2.286 -2.252) scale(4.0494)" gradientUnits="userSpaceOnUse"><stop offset="0" stop-color="#f1efeb"/><stop offset="1" stop-color="#fdfcfc"/></linearGradient><linearGradient id="c" x1="30.852" x2="30.852" y1="12" y2="51.772" gradientUnits="userSpaceOnUse"><stop offset="0" stop-color="#09cdc2"/><stop offset="1" stop-color="#059b87"/></linearGradient><filter id="a" width="1.096" height="1.096" x="-.048" y="-.048" color-interpolation-filters="sRGB"><feGaussianBlur stdDeviation="1.2"/></filter></defs><rect width="60" height="60" x="2" y="3" filter="url(#a)" opacity=".15" rx="30" ry="30"/><rect width="60" height="60" x="2" y="2" fill="url(#b)" rx="30" ry="30"/><image xlink:href="data:image/png;base64,iVBORw0KGgoAAAANSUhEUgAAAC0AAAAzCAYAAAADxoFxAAAACXBIWXMAAA7DAAAOwwHHb6hkAAAA GXRFWHRTb2Z0d2FyZQB3d3cuaW5rc2NhcGUub3Jnm+48GgAAAZdJREFUaN7tmmFvxCAIhl8c+/9/ eJV9qRulYK9LtesFEnLepcrje2oTkEQErxoREQaZnACh3rMdyCvh5ewk+ACWHMgRaottNwQPngPg yEebWCeiHTh3gIvy0fAWtiqHBecO8IfyMhG6AlhWhwfOzgZrwLy6Bb9qQ4rzvQHbWFU/zx2VGcBn oPYopatakvYfoKZ2T2mtdgmUvhq8qjjVrm1vI3pqF9Wm4Ai86rgTNW6LuRiucE3bk6Oo30aYFqIG sTcisfPWI0f5EQp7ih/GJCIqBhATIV9Vf9cuJweZBdu10ul0l8qHLAUPtIRO6IRO6IRO6IRO6IRO 6IRO6IRO6LeClqB9h4Us5Q8DzAI9VFqwzV7KzWpLj4tFREwS0j70k9SeMAkbcyecl1T3CjUVv2nY 0flpL7ZYcA5mqWsfRS2lGZUAXSiqjvLgoKMFnllzWYxXV+l1XVvoBtdmP7O6tQD4smpHJbnW0Rvo jjpirLRRGwpc1Aa8q2K7URlwbiH8t9q4BXahFThw4y2E9undQnjkfQ964s2abwYO/HMeZvaQAAAA AElFTkSuQmCC" width="45" height="51" x="9.5" y="8.5" image-rendering="optimizeQuality" preserveAspectRatio="none"/><rect width="34" height="40" x="15" y="12" fill="#fff" fill-rule="evenodd" rx="5" ry="5" style="paint-order:stroke fill markers"/><path fill="url(#c)" d="M19.692 12a4.605 4.605 0 0 0-4.615 4.615v30.77A4.605 4.605 0 0 0 19.692 52h.409a12.08 12.08 0 0 1-.409-3.077c-.005-6.798 5.51-12.308 12.308-12.308 6.797 0 12.309 5.51 12.308 12.308 0 .679-.059 1.356-.171 2.025a4.58 4.58 0 0 0 1.71-3.564V36.615h-6.154L25.847 24.307v12.308l-3.077-3.077-3.077 3.077zm6.154 12.308L38.154 12H25.846zm20 12.308v-20a4.592 4.592 0 0 0-2.164-3.9L32.768 24.309zm-3.077-24.615a4.605 4.605 0 0 1 4.615 4.615v30.77A4.605 4.605 0 0 1 42.77 52h1.538a4.605 4.605 0 0 0 4.616-4.616V16.616a4.605 4.605 0 0 0-4.616-4.615zM31.999 42.77a6.154 6.154 0 0 0-6.153 6.154c.002 1.08.29 2.142.832 3.077h10.643c.543-.935.83-1.996.833-3.077A6.154 6.154 0 0 0 32 42.77z" style="paint-order:normal"/></svg>
